X: 17735
T: Homer Spit, The
R: hornpipe
M: 4/4
K: Dmajor
|:D3E FEFG|Addc d3e|f3e dedB|=c2 A2 A2 de|
f3e dedB|=c2 (3ABc dcAG|FD (3EFG AFGE|1 F2 D2 D2 AF:|2 F2 D2D2 fg||
|:afge d2 fg|afge d2 AG|DEFG A^GAB|=c2 A2 A2 fg|
afge d2 fg|afge dcAG|FD (3EFG AFGE|1 F2 D2 D2 fg:|2 F2 D2 D2 AF||

